img/icons/food.svg

<svg width="76" height="72" fill="none" xmlns="http://www.w3.org/2000/svg">
  <path d="M71.5757 47.7H5.6103C3.30452 47.7 1.5 49.6 1.5 52v3.5c0 2.4 1.90477 4.3 4.1103 4.3h.90227v1.1c0 5.5 4.31083 10.1 9.62413 10.1h44.7121c5.3133 0 9.6241-4.5 9.6241-10.1v-1.1h.9023c2.3058 0 4.1103-1.9 4.1103-4.3V52c.2005-2.3-1.7043-4.3-3.9098-4.3Zm-3.9098 13.2c0 3.9-3.0076 7-6.7169 7H16.1367c-3.7093 0-6.71685-3.2-6.71685-7v-1.1H67.6659v1.1Zm5.1128-5.4c0 .7-.6015 1.3-1.203 1.3H5.51005c-.70176 0-1.20301-.6-1.20301-1.3V52c0-.7.60151-1.3 1.20301-1.3H71.4754c.7018 0 1.203.6 1.203 1.3.1003 0 .1003 3.5.1003 3.5ZM17.1392 39.4l5.4136 4.1 5.3133-4.1 5.3133 4.1 5.3133-4.1 5.4136 4.1 5.3133-4.1 5.3133 4.1 5.4136-4.1 5.3133 4.1 6.2156-4.7-1.7043-2.5-4.5113 3.4-5.3133-4.1-5.4136 4.1-5.3133-4.1-5.3133 4.1-5.4136-4.1-5.3133 4.1-5.3133-4.1-5.3133 4.1-5.4136-4.1-5.3133 4.1-4.51132-3.4-1.70428 2.5 6.2156 4.7 5.3133-4.1ZM9.52011 32.5H70.4729c0-.6.1003-1.2.1003-1.9v-1.2C69.8714 13.7 55.8362 1 38.593 1 21.2495 1 7.21432 13.7 6.51257 29.5v1.2c0 .6-.00442 1.2.09583 1.8h2.91171ZM38.593 4c15.6392 0 28.4714 11.3 29.0729 25.5H9.52011C10.1216 15.4 22.9538 4 38.593 4Z" fill="#83B3D3"/>
  <path d="M38.593 18.3c1.052 0 1.9048-.8954 1.9048-2s-.8528-2-1.9048-2-1.9048.8954-1.9048 2 .8528 2 1.9048 2ZM30.7734 13.2c1.052 0 1.9048-.8954 1.9048-2s-.8528-2-1.9048-2-1.9048.8954-1.9048 2 .8528 2 1.9048 2ZM46.3123 13.2c1.052 0 1.9048-.8954 1.9048-2s-.8528-2-1.9048-2c-1.0519 0-1.9047.8954-1.9047 2s.8528 2 1.9047 2Z" fill="#83B3D3"/>
</svg>

<svg width="76" height="72" viewBox="0 0 76 72" fill="none" xmlns="http://www.w3.org/2000/svg">
<path d="M71.5757 47.7H5.6103C3.30452 47.7 1.5 49.6 1.5 52V55.5C1.5 57.9 3.40477 59.8 5.6103 59.8H6.51257V60.9C6.51257 66.4 10.8234 71 16.1367 71H60.8488C66.1621 71 70.4729 66.5 70.4729 60.9V59.8H71.3752C73.681 59.8 75.4855 57.9 75.4855 55.5V52C75.686 49.7 73.7812 47.7 71.5757 47.7ZM67.6659 60.9C67.6659 64.8 64.6583 67.9 60.949 67.9H16.1367C12.4274 67.9 9.41985 64.7 9.41985 60.9V59.8H67.6659V60.9ZM72.7787 55.5C72.7787 56.2 72.1772 56.8 71.5757 56.8H5.51005C4.80829 56.8 4.30704 56.2 4.30704 55.5V52C4.30704 51.3 4.90855 50.7 5.51005 50.7H71.4754C72.1772 50.7 72.6784 51.3 72.6784 52C72.7787 52 72.7787 55.5 72.7787 55.5Z" fill="#83B3D3"/>
<path d="M17.1392 39.4L22.5528 43.5L27.8661 39.4L33.1794 43.5L38.4927 39.4L43.9063 43.5L49.2196 39.4L54.5329 43.5L59.9465 39.4L65.2598 43.5L71.4754 38.8L69.7711 36.3L65.2598 39.7L59.9465 35.6L54.5329 39.7L49.2196 35.6L43.9063 39.7L38.4927 35.6L33.1794 39.7L27.8661 35.6L22.5528 39.7L17.1392 35.6L11.8259 39.7L7.31458 36.3L5.6103 38.8L11.8259 43.5L17.1392 39.4Z" fill="#83B3D3"/>
<path d="M9.52011 32.5H70.4729C70.4729 31.9 70.5732 31.3 70.5732 30.6C70.5732 30.2 70.5732 29.8 70.5732 29.4C69.8714 13.7 55.8362 1 38.593 1C21.2495 1 7.21432 13.7 6.51257 29.5C6.51257 29.9 6.51257 30.3 6.51257 30.7C6.51257 31.3 6.50815 31.9 6.6084 32.5H9.52011ZM38.593 4C54.2322 4 67.0644 15.3 67.6659 29.5H9.52011C10.1216 15.4 22.9538 4 38.593 4Z" fill="#83B3D3"/>
<path d="M38.593 18.3C39.645 18.3 40.4978 17.4046 40.4978 16.3C40.4978 15.1954 39.645 14.3 38.593 14.3C37.541 14.3 36.6882 15.1954 36.6882 16.3C36.6882 17.4046 37.541 18.3 38.593 18.3Z" fill="#83B3D3"/>
<path d="M30.7734 13.2C31.8254 13.2 32.6782 12.3046 32.6782 11.2C32.6782 10.0954 31.8254 9.2 30.7734 9.2C29.7214 9.2 28.8686 10.0954 28.8686 11.2C28.8686 12.3046 29.7214 13.2 30.7734 13.2Z" fill="#83B3D3"/>
<path d="M46.3123 13.2C47.3643 13.2 48.2171 12.3046 48.2171 11.2C48.2171 10.0954 47.3643 9.2 46.3123 9.2C45.2604 9.2 44.4076 10.0954 44.4076 11.2C44.4076 12.3046 45.2604 13.2 46.3123 13.2Z" fill="#83B3D3"/>
</svg>
